X:1
T:Hallett, 77.77.77
T:Hallett, 77.77.77
T:James Hallett Sheppard (1835-1879)
T:Public Domain Courtesy of the Cyber Hymnal™
C:James Hallett Sheppard (1835-1879)
Z:Public Domain
Z:Courtesy of the Cyber Hymnal™
%%score ( 1 2 ) ( 3 4 )
L:1/8
Q:1/4=110
M:4/4
K:Eb
V:1 treble 
V:2 treble 
V:3 bass 
V:4 bass 
V:1
 [EB]3 [DB] [Ee]2 [EB]2 | [Ed]2 [Ec]2 [EB]4 | [EG]3 [EA] [EB]2 (cB) | [DA]2 [EG]2 [DF]4 | %4
 [EB]3 [DB] [Ee]2 [EG]2 | [EA]2 [Ec]2 [DF]4 | [EB]3 [EB] E2 [FA]2 | G3 z F E4 | %8
 [DF]3 [DF] [EG]2 [EG]2 | [EA]2 [DF]2 B4 | [Ee]3 [Ee] E2 [EF]2 x | G3 z F E4 |] %12
V:2
 x8 | x8 | x6 E2 | x8 | x8 | x8 | x4 E2 x2 | E2 (D2 E4) x | x8 | x4 (E2 D2) | x4 E2 x3 | %11
 E2 (D2 E4) x |] %12
V:3
 [E,G,]3 [F,A,] [G,B,]2 [G,B,]2 | A,2 A,2 [G,B,]4 | [E,B,]3 [F,B,] [G,B,]2 A,[G,B,] | %3
 [F,B,]2 [E,B,]2 B,4 | [G,B,]3 [F,A,] [E,G,]2 [_D,B,]2 | [C,A,]2 [C,E,]2 B,4 | %6
 [G,,B,]3 [G,,B,] [C,G,]2 [A,,C]2 | [B,,B,]2 [B,,A,]2 [E,G,]4 x | B,3 [A,B,] [G,B,]2 [G,B,]2 | %9
 [F,C]2 [A,B,]2 [G,B,]2 [F,A,]2 | G,3 z G, [C,A,]2 [_C,=A,]2 | [B,,B,]2 [B,,A,]2 [E,G,]4 x |] %12
V:4
 x8 | A,2 A,2 x4 | x6 A, x | x4 B,,2 A,2 | x8 | x4 (B,,2 A,,2) | x8 | x9 | B,3 x5 | x8 | %10
 E,2 _D,2 x5 | x9 |] %12

